X:1
T:Title
%%score 1 { ( 2 4 ) | ( 3 5 ) }
L:1/8
Q:1/4=70
M:3/4
K:D
V:1 treble nm="Voice"
V:2 treble nm="Piano"
V:4 treble 
V:3 bass 
V:5 bass 
V:1
"^Lent schleich ruhstng"!p! D E | F3 E F A | (A2 F) z A2 | A3 G E D | C2 z2 D E | F3 E F A | %6
 (A2 F) z F A | A3 G F E | D2 z2 D F | G3 F E G | (G2 F) z F A | A3 G F E | D2 z2 D E | F3 E F A | %14
 (A2 F) z F A | A3 G F E | D2 z2 |] %17
V:2
!p! ([F,D][G,E] | [A,F]3 [G,E][A,F][CA] | [D-A]2 [A,DF]) z [DA]2 | (A3 GED | %4
 [A,C]2) z2 ([F,D][G,E] | [A,F]3 [G,E][A,F][CA] | [D-A]2 [A,DF]) z (FA) | (A3 GFE | %8
 [F,D]2) z2 ([F,D][A,F] | [A,G]3 [A,F][A,E][A,G] | [A,-G]2 [A,F]) z ([A,F][=CA] | A3 GFE | %12
 D2) z2 ([F,D][G,E] | [A,F]3 [G,E][A,F][CA] | [D-A]2 [A,DF]) z (FA) | (A3 GFE | D2) z2 |] %17
V:3
 D,2 | D,6 | D,4 F,2 | E,4 G,2 | z2 (A,,2 D,2) | D,6 | D,4 D,2 | A,,6 | z2 D,2 D,,2 | (C,3 D,E,C, | %10
 D,2 D,,2) z2 | (C,3 D,E,C, | D,2) (D,,2 D,2 | D,6 | D,,4) D,2 | (A,3 B,CC, | D,2) z2 |] %17
V:4
 x2 | x6 | x6 | [B,D]4 [B,D]2 | x6 | x6 | x4 A,2 | [B,D]2 C2 G,2 | x6 | x6 | x6 | (A,2 B,2 CG, | %12
 F,2) x4 | x6 | x4 A,2 | (D2 C2 G,2 | F,2) x2 |] %17
V:5
 x2 | x6 | x6 | x6 | x6 | x6 | x6 | x6 | x6 | x6 | x6 | x6 | x6 | x6 | x6 | A,,6 | D,,2 x2 |] %17

